X:1
T:Title
%%score { ( 1 3 ) | 2 }
L:1/8
M:4/4
K:G
V:1 treble nm="Grand Piano"
V:3 treble 
V:2 bass 
V:1
 z4 z2[Q:1/4=108] A>c | E6 z2 | C6 z2 | D2 =F2 F2 B,>D |[M:3/4] C2 E2 E2 |[M:1/4] G>c | %6
[M:4/4] E6 z2 | z2 A,2 A,2 C>E | D2 G2 G2 F2 | [B,G]6 z2 | [G,CEG]2 [G,CEG]2 [EA]2 [CEG]2 | %11
 c>B c>d e2- [EGe]2 | [EG]2 [CEG]2 [EA]2 [CEG]2 | [B,=FB]6 z2 | %14
 [G,B,=FG]2 [G,B,FG]2 [FA]2 [B,FG]2 | d>^c d>e =f2- [=FBf]2 | [=FA]2 [B,FA]2 [FB]2 [B,FA]2 | %17
 [CEG]6 z2 | [G,CEG]2 [G,CEG]2 [EA]2 [CEG]2 | c>B c>d e2- [G,EGe]2 | [E^Ge]2 [EGe]2 [EGe]2 [EGe]2 | %21
 [EA]6 z2 | [=FAd]2 [FAc]2 [^D^FB]2 [DFA]2 | G2 z2 e4 | [DFd]2 [DFA]2 [D=FGB]2 [DFG]2 | %25
[M:3/4] [EGc]4 [cegb]2 |] %26
V:2
 z8 | C,2 E,2 E,2 z2 | C,2 E,2 E,2 z2 | G,,2 [D,G,B,]2 [D,G,B,]2 z2 | %4
[M:3/4] C,2 [E,G,C]2 [E,G,C]2 |[M:1/4] z2 |[M:4/4] C,2 E,2 E,2 z2 | A,,2 E,2 E,2 z2 | %8
 D,2 [G,B,D]2 [D,A,C]2 [D,A,D]2 | [G,,G,]2 =F,2 E,2 D,2 | C,2 G,,2 [C,G,C]2 [G,,G,]2 | %11
 [C,G,]2 [G,,G,]2 [C,G,]2 [G,,G,]2 | [C,G,C]2 [G,,G,]2 [C,G,C]2 [G,,G,]2 | [D,G,]2 G,,2 D,2 G,,2 | %14
 D,2 G,,2 [D,G,B,]2 [G,,G,]2 | [D,G,]2 [G,,G,]2 [D,G,]2 [G,,G,]2 | %16
 [D,G,B,]2 [G,,G,]2 [D,G,B,]2 [G,,G,]2 | [C,G,]2 B,,2 A,,2 G,,2 | C,2 G,,2 [C,G,C]2 [G,,G,]2 | %19
 [C,G,]2 [G,,G,]2 [C,G,]2 G,,2 | B,,2 [E,^G,B,D]2 E,,2 [E,G,B,D]2 | A,,2 E,2 E,2 E,2 | %22
 [=F,,=F,]2 [F,,F,]2 [^F,,^F,]2 [F,,F,]2 | [G,,G,]2 [E,G,CE]2[K:treble] [A,^CEG]2 [A,CE]2 | %24
 [D,,D,]2 [D,F,A,C]2 [G,,G,]2 [=F,G,B,]2 |[M:3/4] [C,C]2 [G,,G,]2 [C,,C,]2 |] %26
V:3
 x8 | z2 G,2 G,2 E>G | z2 G,2 G,2 C>E | x8 |[M:3/4] x6 |[M:1/4] x2 |[M:4/4] z2 G,2 G,2 E>G | %7
 C6 z2 | x8 | x8 | x8 | [EG]2 [EG]2 [EG]2 z2 | x8 | z2 G,2 G,2 G,2 | x8 | [=FB]2 [FB]2 [FB]2 z2 | %16
 x8 | x8 | x8 | [EG]2 [EG]2 [EG]2 z2 | x8 | z2 [A,C]2 [A,C]2 [A,C]2 | x8 | E->[EF] G>c z2 G2 | x8 | %25
[M:3/4] x6 |] %26

